public/icon/svg/Instagram.svg

<?xml version="1.0" encoding="UTF-8"?>
<svg width="1024px" height="1024px" viewBox="0 0 1024 1024" version="1.1" xmlns="http://www.w3.org/2000/svg" xmlns:xlink="http://www.w3.org/1999/xlink">
    <title>Instagram1</title>
    <defs>
        <radialGradient cx="26.5626266%" cy="107.702106%" fx="26.5626266%" fy="107.702106%" r="99.107386%" id="radialGradient-1">
            <stop stop-color="#FFDD55" offset="0%"></stop>
            <stop stop-color="#FFDD55" offset="10%"></stop>
            <stop stop-color="#FF543E" offset="50%"></stop>
            <stop stop-color="#C837AB" offset="100%"></stop>
        </radialGradient>
        <radialGradient cx="-16.7505274%" cy="7.20383154%" fx="-16.7505274%" fy="7.20383154%" r="44.3014085%" id="radialGradient-2">
            <stop stop-color="#3771C8" offset="0%"></stop>
            <stop stop-color="#3771C8" offset="12.8%"></stop>
            <stop stop-color="#6600FF" stop-opacity="0" offset="100%"></stop>
        </radialGradient>
    </defs>
    <g id="ICON-新版方图标" stroke="none" stroke-width="1" fill="none" fill-rule="evenodd">
        <g id="Instagram1" fill-rule="nonzero">
            <path d="M0,0 L0,1024 L1024,1024 C1024,776.097506 1024,605.31924 1024,511.665202 C1024,417.99541 1024,247.440342 1024,0 L0,0 Z" id="路径" fill="url(#radialGradient-1)"></path>
            <path d="M512.167134,0 C369.663632,0 198.941254,0 1.8189894e-12,0 C0.159842309,148.707886 0.171509631,263.836232 0.0350019654,345.38504 C-0.0437524568,386.159444 0.0350019654,439.821585 0.0350019654,511.799121 C0.0350019654,725.439353 0.271265232,787.908638 1.29507272,800.040126 C4.83902172,842.736662 11.5331476,869.599243 25.7089436,898.982652 C52.8004649,955.228642 104.54212,997.452523 165.498043,1013.2077 C186.604228,1018.64324 209.915537,1021.63672 239.842218,1023.05469 C252.52168,1023.60612 381.757687,1024 511.072448,1024 C640.387209,1024 769.701971,1023.84245 782.066415,1023.21224 C816.718361,1021.58158 836.840116,1018.87957 859.08824,1013.12893 C920.437935,997.294971 971.234537,955.701298 998.877339,898.667549 C1012.77749,869.993122 1019.82602,842.106455 1023.01557,801.639277 C1023.70861,792.816377 1024,652.146259 1024,511.665202 C1024,371.160514 1023.68498,230.750356 1022.99194,221.927455 C1019.76301,180.806437 1012.71449,153.156098 998.365436,123.93024 C986.591649,100.006001 973.518415,82.1396272 954.5386,63.8714968 C920.666323,31.5103586 879.241496,11.8163845 829.878225,4.69504343 C805.960507,1.23678157 801.195864,0.21269492 678.811492,0 L512.167134,0 Z" id="路径" fill="url(#radialGradient-2)"></path>
            <path d="M511.930871,133.919024 C409.266606,133.919024 396.382383,134.368047 356.060119,136.203525 C315.816609,138.046881 288.347066,144.419851 264.311217,153.77055 C239.448446,163.428475 218.358011,176.347722 197.346331,197.373008 C176.318901,218.390418 163.403175,239.486603 153.716382,264.348276 C144.344605,288.398557 137.965497,315.883467 136.154145,356.122195 C134.350669,396.455454 133.878143,409.351068 133.878143,512.043327 C133.878143,614.735585 134.334918,627.583934 136.162021,667.917193 C138.01275,708.171676 144.383982,735.648709 153.724257,759.691112 C163.387425,784.560663 176.30315,805.656848 197.322705,826.674257 C218.32651,847.707421 239.416944,860.658179 264.263964,870.316104 C288.315565,879.666803 315.792983,886.039773 356.028617,887.883129 C396.350881,889.718607 409.227229,890.16763 511.883618,890.16763 C614.555759,890.16763 627.400605,889.718607 667.722869,887.883129 C707.966379,886.039773 735.467423,879.666803 759.519024,870.316104 C784.373919,860.658179 805.432852,847.707421 826.436656,826.674257 C847.464087,805.656848 860.379812,784.560663 870.066606,759.69899 C879.359628,735.648709 885.738736,708.163798 887.628842,667.925071 C889.440194,627.591812 889.912721,614.735585 889.912721,512.043327 C889.912721,409.351068 889.440194,396.463332 887.628842,356.130073 C885.738736,315.875589 879.359628,288.398557 870.066606,264.356153 C860.379812,239.486603 847.464087,218.390418 826.436656,197.373008 C805.409226,176.339844 784.381795,163.420597 759.495397,153.77055 C735.396544,144.419851 707.911251,138.046881 667.667741,136.203525 C627.345477,134.368047 614.508506,133.919024 511.812739,133.919024 L511.930871,133.919024 Z M478.019217,202.060174 C488.084032,202.044419 499.314413,202.060174 511.930871,202.060174 C612.862539,202.060174 624.825335,202.422543 664.682949,204.234389 C701.540018,205.920193 721.543641,212.080468 734.86889,217.256045 C752.50988,224.109548 765.086961,232.302241 778.309829,245.536592 C791.540572,258.770942 799.731032,271.375086 806.598417,289.020886 C811.772583,302.334013 817.939054,322.343091 819.616523,359.21021 C821.427875,399.070814 821.821647,411.04475 821.821647,511.956673 C821.821647,612.868597 821.427875,624.842533 819.616523,664.703136 C817.931179,701.570256 811.772583,721.579334 806.598417,734.89246 C799.746783,752.538261 791.540572,765.103016 778.309829,778.329489 C765.079086,791.56384 752.517756,799.756533 734.86889,806.610036 C721.559392,811.809245 701.540018,817.953765 664.682949,819.63957 C624.833211,821.451415 612.862539,821.845295 511.930871,821.845295 C410.991328,821.845295 399.028531,821.451415 359.178794,819.63957 C322.321724,817.93801 302.318101,811.777735 288.984977,806.602159 C271.343987,799.748656 258.743279,791.555962 245.512536,778.321612 C232.281793,765.087261 224.091333,752.514628 217.223948,734.86095 C212.049782,721.547823 205.883311,701.538746 204.205842,664.671626 C202.39449,624.811022 202.03222,612.837086 202.03222,511.862142 C202.03222,410.887198 202.39449,398.976283 204.205842,359.115679 C205.891186,322.248559 212.049782,302.239482 217.223948,288.9106 C224.075582,271.264799 232.281793,258.660656 245.512536,245.426305 C258.743279,232.191955 271.343987,223.999261 288.984977,217.130003 C302.310225,211.930794 322.321724,205.786274 359.178794,204.092592 C394.051252,202.517075 407.565511,202.044419 478.019217,201.965643 L478.019217,202.060174 Z M713.715452,264.844564 C688.671546,264.844564 668.352905,285.145112 668.352905,310.203725 C668.352905,335.25446 688.671546,355.578641 713.715452,355.578641 C738.759358,355.578641 759.077999,335.25446 759.077999,310.203725 C759.077999,285.15299 738.759358,264.828809 713.715452,264.828809 L713.715452,264.844564 Z M511.930871,317.860742 C404.722476,317.860742 317.80122,404.805699 317.80122,512.043327 C317.80122,619.280955 404.722476,706.186523 511.930871,706.186523 C619.139266,706.186523 706.02902,619.280955 706.02902,512.043327 C706.02902,404.805699 619.131391,317.860742 511.922996,317.860742 L511.930871,317.860742 Z M511.930871,386.001892 C581.518279,386.001892 637.937947,442.429067 637.937947,512.043327 C637.937947,581.649709 581.518279,638.084761 511.930871,638.084761 C442.335588,638.084761 385.923796,581.649709 385.923796,512.043327 C385.923796,442.429067 442.335588,386.001892 511.930871,386.001892 Z" id="形状" fill="#FFFFFF"></path>
        </g>
    </g>
</svg>

<svg xmlns="http://www.w3.org/2000/svg" width="1024" height="1024"><defs><radialGradient id="a" cx="26.563%" cy="107.702%" r="99.107%" fx="26.563%" fy="107.702%"><stop offset="0%" stop-color="#FD5"/><stop offset="10%" stop-color="#FD5"/><stop offset="50%" stop-color="#FF543E"/><stop offset="100%" stop-color="#C837AB"/></radialGradient><radialGradient id="b" cx="-16.751%" cy="7.204%" r="44.301%" fx="-16.751%" fy="7.204%"><stop offset="0%" stop-color="#3771C8"/><stop offset="12.8%" stop-color="#3771C8"/><stop offset="100%" stop-color="#60F" stop-opacity="0"/></radialGradient></defs><g fill="none" fill-rule="nonzero"><path fill="url(#a)" d="M0 0v1024h1024V0z"/><path fill="url(#b)" d="M512.167 0H0c.16 148.708.172 263.836.035 345.385-.079 40.774 0 94.437 0 166.414 0 213.64.236 276.11 1.26 288.241 3.544 42.697 10.238 69.56 24.414 98.943 27.091 56.246 78.833 98.47 139.789 114.225 21.106 5.435 44.418 8.429 74.344 9.847 12.68.551 141.916.945 271.23.945 129.315 0 258.63-.158 270.994-.788 34.652-1.63 54.774-4.332 77.022-10.083 61.35-15.834 112.147-57.428 139.79-114.461 13.9-28.675 20.948-56.562 24.138-97.029.693-8.823.984-149.493.984-289.974 0-140.504-.315-280.915-1.008-289.738-3.229-41.12-10.278-68.77-24.627-97.997-11.773-23.924-24.847-41.79-43.826-60.059-33.873-32.36-75.298-52.055-124.66-59.176C805.96 1.237 801.195.213 678.81 0H512.167"/><path fill="#FFF" d="M511.93 133.919c-102.663 0-115.548.449-155.87 2.285-40.243 1.843-67.713 8.216-91.749 17.567-24.863 9.657-45.953 22.577-66.965 43.602-21.027 21.017-33.943 42.114-43.63 66.975-9.371 24.05-15.75 51.535-17.562 91.774-1.803 40.333-2.276 53.23-2.276 155.921 0 102.693.457 115.54 2.284 155.874 1.85 40.255 8.222 67.732 17.562 91.774 9.663 24.87 22.58 45.966 43.599 66.983 21.004 21.033 42.094 33.984 66.941 43.642 24.052 9.35 51.529 15.724 91.765 17.567 40.322 1.836 53.198 2.285 155.855 2.285 102.672 0 115.517-.45 155.839-2.285 40.243-1.843 67.744-8.216 91.796-17.567 24.855-9.658 45.914-22.609 66.918-43.642 21.027-21.017 33.943-42.113 43.63-66.975 9.293-24.05 15.672-51.535 17.562-91.774 1.811-40.333 2.284-53.19 2.284-155.882 0-102.692-.473-115.58-2.284-155.913-1.89-40.254-8.27-67.731-17.562-91.774-9.687-24.87-22.603-45.966-43.63-66.983-21.028-21.033-42.055-33.952-66.942-43.602-24.098-9.351-51.584-15.724-91.827-17.567-40.323-1.836-53.16-2.285-155.855-2.285h.118m-33.91 68.141c10.064-.016 21.294 0 33.91 0 100.933 0 112.895.363 152.753 2.174 36.857 1.686 56.86 7.846 70.186 13.022 17.64 6.854 30.218 15.046 43.44 28.28 13.232 13.235 21.422 25.84 28.29 43.485 5.174 13.313 11.34 33.322 13.018 70.19 1.81 39.86 2.205 51.834 2.205 152.746s-.394 112.886-2.205 152.746c-1.686 36.867-7.844 56.876-13.019 70.19-6.851 17.645-15.057 30.21-28.288 43.436-13.23 13.235-25.792 21.428-43.441 28.281-13.31 5.2-33.329 11.344-70.186 13.03-39.85 1.811-51.82 2.205-152.752 2.205-100.94 0-112.902-.394-152.752-2.205-36.857-1.702-56.86-7.862-70.194-13.038-17.641-6.853-30.242-15.046-43.472-28.28-13.231-13.235-21.422-25.807-28.29-43.461-5.173-13.313-11.34-33.322-13.017-70.19-1.812-39.86-2.174-51.834-2.174-152.809s.362-112.886 2.174-152.746c1.685-36.867 7.844-56.877 13.018-70.205 6.852-17.646 15.058-30.25 28.289-43.485 13.23-13.234 25.831-21.427 43.472-28.296 13.325-5.2 33.337-11.344 70.194-13.037 34.872-1.576 48.387-2.049 118.84-2.127v.094m235.695 62.785c-25.043 0-45.362 20.3-45.362 45.359 0 25.05 20.319 45.375 45.362 45.375 25.044 0 45.363-20.325 45.363-45.375 0-25.051-20.319-45.375-45.363-45.375v.016M511.931 317.86c-107.209 0-194.13 86.945-194.13 194.182 0 107.238 86.921 194.144 194.13 194.144 107.208 0 194.098-86.906 194.098-194.144 0-107.237-86.898-194.182-194.106-194.182h.008m0 68.14c69.587 0 126.007 56.428 126.007 126.042 0 69.607-56.42 126.042-126.007 126.042-69.595 0-126.007-56.435-126.007-126.042 0-69.614 56.412-126.041 126.007-126.041"/></g></svg>
